svg/m/SX.svg

<svg width="20" height="15" viewBox="0 0 20 15" fill="none" xmlns="http://www.w3.org/2000/svg">
<mask id="mask0" mask-type="alpha" maskUnits="userSpaceOnUse" x="0" y="0" width="20" height="15">
<rect width="20" height="15" fill="white"/>
</mask>
<g mask="url(#mask0)">
<path fill-rule="evenodd" clip-rule="evenodd" d="M0 0V15H20V0H0Z" fill="#E31D1C"/>
<mask id="mask1" mask-type="alpha" maskUnits="userSpaceOnUse" x="0" y="0" width="20" height="15">
<path fill-rule="evenodd" clip-rule="evenodd" d="M0 0V15H20V0H0Z" fill="white"/>
</mask>
<g mask="url(#mask1)">
<path fill-rule="evenodd" clip-rule="evenodd" d="M0 7.5V15H20V7.5H0Z" fill="#2E42A5"/>
</g>
<path fill-rule="evenodd" clip-rule="evenodd" d="M0 -1.25V16.25L12.5 7.5L0 -1.25Z" fill="#F7FCFF"/>
<mask id="mask2" mask-type="alpha" maskUnits="userSpaceOnUse" x="0" y="-2" width="13" height="19">
<path fill-rule="evenodd" clip-rule="evenodd" d="M0 -1.25V16.25L12.5 7.5L0 -1.25Z" fill="white"/>
</mask>
<g mask="url(#mask2)">
<path fill-rule="evenodd" clip-rule="evenodd" d="M5.07869 5.74301C5.97664 5.74301 6.70457 5.29686 6.70457 4.7465C6.70457 4.19615 5.97664 3.75 5.07869 3.75C4.18075 3.75 3.45282 4.19615 3.45282 4.7465C3.45282 5.29686 4.18075 5.74301 5.07869 5.74301Z" fill="#FBCD17"/>
<path fill-rule="evenodd" clip-rule="evenodd" d="M5.2209 3.99072C5.08817 3.99072 4.99386 4.07623 4.99386 4.20494L4.99398 4.21914C4.98685 4.24058 4.98285 4.26449 4.98213 4.29125C4.98028 4.35972 5.00578 4.41684 5.0593 4.46923C5.06259 4.48435 5.0643 4.49688 5.06382 4.50399C5.06057 4.49282 5.04765 4.48346 5.02305 4.46562C4.98808 4.44027 4.9295 4.3978 4.84154 4.3087C4.71484 4.18037 4.61923 4.13014 4.50038 4.1501C4.46434 4.15615 4.42907 4.16884 4.38672 4.1858C4.31921 4.21012 4.25706 4.21576 4.14231 4.19386C3.82343 4.13299 3.47367 4.19271 3.09503 4.36817L3.22642 4.65171C3.54957 4.50196 3.83468 4.45328 4.08371 4.50082C4.25479 4.53347 4.37358 4.52268 4.4926 4.47982C4.54389 4.46053 4.54837 4.45891 4.55213 4.45828C4.54836 4.45892 4.55078 4.46124 4.56663 4.47647C4.57731 4.48673 4.59408 4.50285 4.61915 4.52825C4.65487 4.56443 4.69221 4.59718 4.73034 4.62697C4.65704 4.64667 4.66084 4.66019 4.67429 4.70816C4.67977 4.72771 4.68686 4.75298 4.69099 4.78671C4.7001 4.86119 4.68496 4.89961 4.69802 4.918C4.71259 4.93853 4.76226 4.93413 4.91986 4.9271C4.96228 4.92521 5.01966 4.92083 5.08586 4.91457C5.21568 4.90229 5.36262 4.8844 5.4529 4.8696C5.5406 4.85522 5.56391 4.84998 5.60069 4.82321C5.61341 4.80761 5.6243 4.79426 5.63332 4.78238C5.93321 4.73832 6.19987 4.70702 6.43717 4.68542C6.52225 4.67768 6.59063 4.67237 6.65683 4.66751C6.65815 4.6675 6.65924 4.66749 6.66033 4.66744C6.66574 4.66721 6.67111 4.66609 6.70313 4.65939C6.71995 4.65224 6.7269 4.64929 6.72926 4.6483L6.72923 4.64836C6.72982 4.6481 6.73028 4.64789 6.73028 4.64788C6.73027 4.64788 6.72999 4.64799 6.72926 4.6483L6.80585 4.46687L6.72672 4.37118C6.67372 4.35452 6.67371 4.35452 6.66705 4.35445L6.66704 4.35445C6.65732 4.35388 6.65732 4.35388 6.65176 4.35379C6.62668 4.35363 6.62668 4.35363 6.58009 4.35369C6.52818 4.35369 6.48718 4.3493 6.42794 4.33877L6.37285 4.32864C6.12922 4.28394 5.90325 4.28394 5.42401 4.3554L5.39723 4.33494C5.47441 4.32152 5.56841 4.31242 5.66774 4.30712C5.72779 4.30433 5.72779 4.30433 5.76132 4.30343L5.77599 4.30309L5.77415 3.99074L5.75045 3.99072H5.2209ZM4.96204 4.89543L4.99192 4.88922L5.02136 4.88294C5.01596 4.88408 5.00999 4.88533 5.00338 4.88671C4.99166 4.88915 4.97797 4.89201 4.96204 4.89543Z" fill="#DA610A"/>
<path d="M4.95313 5.36297L5.00369 5.37126L5.05425 5.36297C5.67489 5.26122 6.08356 5.2731 6.32035 5.35252C6.59313 5.44401 6.89465 5.41811 7.21172 5.31133C7.11108 5.75994 7.05956 6.18394 7.05956 6.58241C7.05956 7.03668 7.14743 7.40365 7.22717 7.72561C7.22931 7.73424 7.23144 7.74284 7.23356 7.7514C7.3117 8.06667 7.37646 8.32794 7.37646 8.62777C7.37646 8.89691 7.28719 9.03827 7.16242 9.1266C7.01796 9.22888 6.77702 9.29404 6.41973 9.29404C5.91597 9.29404 5.4447 9.42971 5.01077 9.69514L5.00369 9.69006L4.99661 9.69514C4.56268 9.42971 4.09141 9.29404 3.58765 9.29404C3.23035 9.29404 2.98942 9.22888 2.84496 9.1266C2.72019 9.03827 2.63092 8.89691 2.63092 8.62777C2.63092 8.32794 2.69568 8.06667 2.77381 7.7514C2.77593 7.74284 2.77806 7.73424 2.7802 7.72561C2.85994 7.40365 2.94782 7.03668 2.94782 6.58241C2.94782 6.18394 2.89629 5.75994 2.79566 5.31133C3.11273 5.41811 3.41425 5.44401 3.68702 5.35252C3.92381 5.2731 4.33249 5.26122 4.95313 5.36297Z" fill="#56C6F5" stroke="#E31D1C" stroke-width="0.625"/>
<path fill-rule="evenodd" clip-rule="evenodd" d="M5.49053 6.39L5.00839 5.96143L4.52625 6.39H4.6691V6.63707L3.9191 7.10428V8.24714H3.77625V8.46143H3.9191H6.09767H6.27625V8.24714H6.09767V7.10428L5.31196 6.61482V6.39H5.49053Z" fill="#F7FCFF"/>
<path d="M4.96994 10.6378C5.63309 10.6378 6.08962 10.5654 6.32471 10.442C6.38634 10.3372 6.49443 10.278 6.60944 10.2823C7.12597 10.3014 7.52602 10.0838 7.84051 9.60551C8.18032 9.08874 8.2486 8.3547 8.02713 7.39121L8.58939 7.26196C8.84314 8.36592 8.76028 9.25682 8.32256 9.92248C7.93033 10.519 7.39553 10.8376 6.74287 10.8592C6.40952 11.106 5.82535 11.2147 4.96994 11.2147C4.14241 11.2147 3.52884 11.054 3.13532 10.7126C2.24164 10.5015 1.67372 10.145 1.45042 9.6167C1.21238 9.05351 1.21238 8.27165 1.43443 7.26448L1.99782 7.38869C1.79914 8.28985 1.79914 8.95987 1.98183 9.3921C2.1093 9.69371 2.47971 9.93985 3.10723 10.1105L3.69024 10.2352L3.66225 10.3824C3.94666 10.5486 4.38134 10.6378 4.96994 10.6378Z" fill="#FBCD17"/>
<path d="M2.94629 5.51489L3.26588 5.64346L3.10609 5.97568L3.55308 5.74529L3.51835 5.91586L3.42252 6.38664L3.60567 5.85055V6.32408L3.71757 5.85055L4.04988 5.95077L3.71757 5.74529L4.04988 5.64346" stroke="#73BE4A" stroke-width="0.625" stroke-linecap="round" stroke-linejoin="round"/>
<path fill-rule="evenodd" clip-rule="evenodd" d="M3.55554 6.21069C3.72813 6.21069 3.86804 6.07078 3.86804 5.89819C3.86804 5.7256 3.72813 5.58569 3.55554 5.58569C3.38295 5.58569 3.24304 5.7256 3.24304 5.89819C3.24304 6.07078 3.38295 6.21069 3.55554 6.21069Z" fill="#FBCD17"/>
<path fill-rule="evenodd" clip-rule="evenodd" d="M6.65068 6.17077C6.64556 5.96059 6.62221 5.48071 6.51558 5.48071C6.40832 5.48071 6.392 5.96622 6.38994 6.17443C6.20529 6.23478 6.06628 6.39367 6.06628 6.39367H6.986C6.986 6.39367 6.84111 6.22806 6.65068 6.17077Z" fill="#F7FCFF"/>
</g>
</g>
</svg>

<svg width="20" height="15" fill="none" xmlns="http://www.w3.org/2000/svg">
  <mask id="a" maskUnits="userSpaceOnUse" x="0" y="0" width="20" height="15">
    <path fill="#fff" d="M0 0h20v15H0z"/>
  </mask>
  <g mask="url(#a)">
    <path fill-rule="evenodd" clip-rule="evenodd" d="M0 0v15h20V0H0z" fill="#E31D1C"/>
    <mask id="b" maskUnits="userSpaceOnUse" x="0" y="0" width="20" height="15">
      <path fill-rule="evenodd" clip-rule="evenodd" d="M0 0v15h20V0H0z" fill="#fff"/>
    </mask>
    <g mask="url(#b)">
      <path fill-rule="evenodd" clip-rule="evenodd" d="M0 7.5V15h20V7.5H0z" fill="#2E42A5"/>
    </g>
    <path fill-rule="evenodd" clip-rule="evenodd" d="M0-1.25v17.5L12.5 7.5 0-1.25z" fill="#F7FCFF"/>
    <mask id="c" maskUnits="userSpaceOnUse" x="0" y="-2" width="13" height="19">
      <path fill-rule="evenodd" clip-rule="evenodd" d="M0-1.25v17.5L12.5 7.5 0-1.25z" fill="#fff"/>
    </mask>
    <g mask="url(#c)">
      <path fill-rule="evenodd" clip-rule="evenodd" d="M5.079 5.743c.898 0 1.626-.446 1.626-.997 0-.55-.728-.996-1.626-.996-.898 0-1.626.446-1.626.997 0 .55.728.996 1.626.996z" fill="#FBCD17"/>
      <path fill-rule="evenodd" clip-rule="evenodd" d="M5.22 3.99c-.132 0-.226.086-.226.215v.014a.249.249 0 00-.012.072.23.23 0 00.077.178.147.147 0 01.005.035c-.003-.011-.016-.02-.041-.038-.035-.026-.093-.068-.181-.157-.127-.129-.223-.179-.342-.159a.555.555 0 00-.113.036.419.419 0 01-.245.008c-.319-.06-.668-.001-1.047.174l.131.284c.324-.15.609-.199.858-.151a.725.725 0 00.468-.043c-.004.001-.001.003.015.019l.052.051c.036.037.073.07.111.1-.073.019-.07.032-.056.08.006.02.013.045.017.079.01.074-.006.113.007.131.015.02.064.016.222.01l.166-.013c.13-.013.277-.03.367-.045.088-.015.11-.02.148-.047l.032-.04a14.701 14.701 0 011.027-.115c.006 0 .011-.002.043-.008l.026-.012h.001l.076-.181-.08-.096c-.052-.016-.052-.016-.059-.016l-.015-.001H6.58a.798.798 0 01-.152-.015l-.055-.01c-.244-.045-.47-.045-.949.027l-.027-.02a2.38 2.38 0 01.27-.029c.06-.003.06-.003.094-.003h.015l-.002-.313H5.22zm-.258.906l.03-.007.03-.006a8.363 8.363 0 01-.06.013z" fill="#DA610A"/>
      <path d="M4.953 5.363l.05.008.051-.008c.62-.102 1.03-.09 1.266-.01.273.091.575.065.892-.042-.1.449-.152.873-.152 1.271 0 .455.087.822.167 1.144l.007.025c.078.316.142.577.142.877 0 .269-.089.41-.214.499-.144.102-.385.167-.742.167-.504 0-.975.136-1.41.401l-.006-.005-.007.005a2.658 2.658 0 00-1.41-.401c-.357 0-.598-.065-.742-.167-.125-.089-.214-.23-.214-.5 0-.3.065-.56.143-.876l.006-.025c.08-.322.168-.69.168-1.144 0-.398-.052-.822-.152-1.27.317.106.618.132.891.04.237-.079.645-.09 1.266.011z" fill="#56C6F5" stroke="#E31D1C" stroke-width=".625"/>
      <path fill-rule="evenodd" clip-rule="evenodd" d="M5.49 6.39l-.482-.428-.482.428h.143v.247l-.75.467v1.143h-.143v.215h2.5v-.215h-.178V7.104l-.786-.49V6.39h.178z" fill="#F7FCFF"/>
      <path d="M4.97 10.638c.663 0 1.12-.073 1.355-.196a.316.316 0 01.284-.16c.517.02.917-.198 1.231-.676.34-.517.409-1.251.187-2.215l.562-.129c.254 1.104.171 1.995-.266 2.66-.393.597-.928.916-1.58.937-.334.247-.918.356-1.773.356-.828 0-1.441-.161-1.835-.502-.893-.211-1.461-.568-1.685-1.096-.238-.563-.238-1.345-.016-2.353l.564.125c-.199.9-.199 1.57-.016 2.003.127.302.498.548 1.125.719l.583.124-.028.147c.285.167.72.256 1.308.256z" fill="#FBCD17"/>
      <path d="M2.946 5.515l.32.129-.16.332.447-.23-.035.17-.096.47.184-.535v.473l.112-.473.332.1-.332-.206.332-.101" stroke="#73BE4A" stroke-width=".625" stroke-linecap="round" stroke-linejoin="round"/>
      <path fill-rule="evenodd" clip-rule="evenodd" d="M3.556 6.21a.312.312 0 100-.624.312.312 0 000 .625z" fill="#FBCD17"/>
      <path fill-rule="evenodd" clip-rule="evenodd" d="M6.65 6.17c-.004-.21-.028-.69-.134-.69-.108 0-.124.486-.126.694-.185.06-.324.22-.324.22h.92s-.145-.166-.335-.223z" fill="#F7FCFF"/>
    </g>
  </g>
</svg>
